-----BEGIN PGP PUBLIC KEY BLOCK-----

mQINBGpfFZUBEAC+CVqigY6KN1cdUEydCmyVhciImL3wqWWHJKVu4/cxpHfi0Sfl
Rn+WbkjBfT5L19xmZUeeYlnzVs6aAnBVcCBSeDcX8EfUQr71KSQV2HMY8hEC/Rwq
V4x5ZyjpqU5Y/LUO5vVk6Tc6LZJKnsvpEcFvNk3nAJ/nBKNqMTUsVoPajTNy6tOY
1LWedcQa+YgUU30XsjeqmxufyGeaTrTWo9jNuTTs0cwArfWYhww/sRnU8uadF3U/
nqCCfcj0nURPu5lmoYQ3T4I8UCFh19UxQc4mv3yvarq4nNDGh+a9wVRZRhU8+zaT
z6juuZrL4KnRoLnyysOrLxYnun7oXWrR++yVakdO5ijU9I4UYl1KXzfF8HDkGpFP
0qv3hdvcRyfM71tpOR9xpmQFdobf0wK9AFSU/hiySDxS2LSqF9Gu6BzHC5VltBps
5jd29P9xRwDCnAbSaxXZaqiH6m7xyuCP5vbY+d9fSP8AI8C+JATUvfgt3v5WjXly
jESYrNKtqrTL+OX232n/qtGTAV4kDXKk87S6CI1+u9RDyz8wj3t+6BBsr0G2G+vv
AUWgNk0Ji2Aitpu/zm2HeY8JOpnq8LeT820jCJxolmGbQsfXmolojEdTfGbMYp+U
+b65m3yjOrja7fVlmwhWcNIgCKCWySY2ZtlkvKbqMmdpNtiSKnJIucylfQARAQAB
tB5IYW5uYWggPGhhbm5haHNraWx0b25AdHV0YS5pbz6JAnMEEwEIAF0WIQSaN6MU
T/61z92U2hL3ixRccZnPeQUCal8VlRsUgAAAAAAEAA5tYW51MiwyLjUrMS4xMSwz
LDICGwMFCQPCZwAFCwkIBwICIgIGFQoJCAsCBBYCAwECHgcCF4AACgkQ94sUXHGZ
z3kZXxAAiOnMB3oZ6WGyfXYjKCezIyajU2X5yKBM5EbdPU2QpBP4G6SWnB8Qa2Bg
Y6Ens5Nldh3w278a3RpG4Bto5YBAN0gUqdcrQjdSsFFu00YfLiSTje5P9ZEQiJDC
xPx3pF8RWAyBaavHfliiEKfMTTN6UHCKeIHkFkY2gnaXpBgcRpOJRAEzN/f2/fl6
2crgyij1DCBTi9gwLTb1N7k63e1YNK91oC3YpMAmYtXPAGXUGNJQsxw2RhGH/NbD
dh7V7ZULjvOA4fe2xL7L83x46eF0J1EqcFSHqz+1uLPD+z56pnfU4vF7Qpp6QE+v
1YcHI9tfJTbA3eoIX+dwFD9wIU6QkqECUhr3ulLoU3asFwQQJzxJr88wwl7lwrWO
t9sAyKGuKmwe67T6oBH+QLzdaiOX4L8C8TMD+udGkFY2ltmRYbFhfWHVRyY52Bsr
F1TE4TunNhfG1wboqOjM/WDDFoX5NldL7Hq2oQV5soxJbuumORINixquAP5JVn3v
Up7vDQ6cNvOcTNIi1if/bhrS/jlod8Jr+UHcZcsLmqwiMLaXUpaR05jqH9ggi7t6
TgaT5sGik/EeyOSY2PC8ARzR70AU0FUo6K4JQbNLfmrvG8ktkW3+ENE0hQONxshZ
6GFVZtzNw3bpvpFwMPnMWXxgtX7R4NKFXy+ymROCUDF2Wi3WxiC5Ag0Eal8VlQEQ
AMmYfu3coExSBY77+3TphUTltI7CmelDTgyp2Td7h5DIn+yUAIwTz/PuTk6vRGaH
js2vDwOUDUaD7a5jHCKU2BdObUMX+yONXconmU81NdsoUuriW2NScraiRvf+kCPy
uB+LkQVmnb2wfHiXDR8qxOIaiU1zE/S5MLk+Y5PeF1QsTzoyjLXI2i/1myNGrxO4
H5spl+9gV/aGmk7nrZFFnElwFCLjIUGgAUskTVAr8+6hX7XrMKh0uGQu+DR2ffCt
Iwr5vnxPq3apdQknuDEAlLj8naNcZ1YGKW5eOwcg3hcRPRCLrvCIRmOOzYWQzxq/
JgzUuE179tYCpfaxKsfkoUHyoBWVgEboaS93sPHB05uuNCoIJ7JcuULbZaPIlouA
B6QbkNcU0s26zqPtkm6gMVeUgI9DRgK9dROh31+e/Zwg0zVzzvTURvLpuaMicZ0E
C302Puj6j7LU/e6QeM30XiDS85/NAdN9/eNmkB0NEn7pabhkBfBlCwPFCrDPAXsp
SlOOsOyTrWYgfcw+/ZaUi/Xo+PxJMNilgrQmPCxRaJFgLhHMLrq+KKlFgzgp4x+E
907TXvXwEk8VUeOQ5gD4iAersXQp/iQ7IMZIdw8E0JPU6GIKS3pf92qZY1lKdzJV
QSb7PeF/F5jduArdAylkVAUFFSHcLTvjcSJKr0GaJEspABEBAAGJAlgEGAEIAEIW
IQSaN6MUT/61z92U2hL3ixRccZnPeQUCal8VlRsUgAAAAAAEAA5tYW51MiwyLjUr
MS4xMSwzLDICGwwFCQPCZwAACgkQ94sUXHGZz3mv+A/9GW9jAWoZ+p37SjBJdTyu
H/ABTYsYbLrTa1k3LI4I5/7YVXSTunyuxEO45zghjr97+MZZDKxOiW+ut093zRQT
GrhEyyY6La0CZFItzZEYp35xde1fClMx4Xn1qcSw35jnTR8NgFOCIy5nX8dC6YZo
ZJyxVY7qQA+oxKgQhFqFrGkaxSoZctLUUDaPIOjuzpYHqI1etwcQ1mLIGRu9tcoS
u9x093jHBNL00YncGHJz22zq3AuZ74jchtFfGHRTcdcuhTeP+ngJWgwsWzbFtJHJ
D3/DxEGPCk5qeR8eQ1uUFXfJZwkecJzTTc25w/EVIwwmvyO1yPIbSZTyaI6fRUOZ
0eVNK643JAcPZrG6MbmDPrTayA77LlASFoRj4ko0/AURNxcOAqLqKyd/Tv+ZV27z
veRTZgUiYgXhCw1oMcQfCHbveyN/XcZ8rwI6tB9TcoB20DwOCM4sCfGc6a1xfUts
ERXw/1pL6GLqkS3wd8k0AMcCXA4nK/wyX33ICquAxDvOVlMVmHbJHXS6cTwU0/B7
SmbwM7tpUqMy8QSM4D0qHR5f9GSip3TYn+pScaCIm6k11FAv6KvQsszrJCHkqnwW
72feS3Z04zvidbYOB4bmvsmJVIPPO6fRVkwj4jR6tTQiY29J+kSH34QAGVGggoOk
ckqVDn07UMLPVdcr2oFmiwc=
=Jc+G
-----END PGP PUBLIC KEY BLOCK-----
